apps/service-portal/src/assets/images/payment.svg

<svg width="205" height="289" viewBox="0 0 205 289" fill="none" xmlns="http://www.w3.org/2000/svg">
<path d="M97.8957 125.036V150.112C97.8957 157.873 104.188 164.174 111.958 164.174H189.138C196.899 164.174 203.2 157.882 203.2 150.112V125.036H97.8957ZM131.467 153.021H111.27V147.556H131.467V153.021ZM151.663 140.195H111.279V134.73H151.663V140.195ZM183.431 153.021C178.384 153.021 174.286 148.922 174.286 143.875C174.286 138.829 178.384 134.73 183.431 134.73C188.478 134.73 192.577 138.829 192.577 143.875C192.577 148.922 188.487 153.021 183.431 153.021ZM97.8957 110.165V109.821C97.8957 102.06 104.188 95.7586 111.958 95.7586H189.138C196.899 95.7586 203.2 102.051 203.2 109.821V110.165H97.8957ZM38.7001 93.9834C38.7001 93.9834 54.9838 97.1156 59.0733 71.5098C59.0733 71.5098 71.3976 101.986 57.1029 137.025C57.1029 137.025 77.2901 177.307 57.1029 208.908H100.349C100.349 208.908 81.9559 240.852 79.7903 253.52H6.65332L23.1321 217.068C23.1321 217.068 14.8044 170.448 23.6991 140.176C32.5938 109.905 38.7001 93.9834 38.7001 93.9834Z" fill="url(#paint0_linear)"/>
<path d="M31.7475 11.3113C34.8171 11.3113 37.3055 8.82292 37.3055 5.75332C37.3055 2.68372 34.8171 0.195312 31.7475 0.195312C28.6779 0.195312 26.1895 2.68372 26.1895 5.75332C26.1895 8.82292 28.6779 11.3113 31.7475 11.3113Z" fill="#0061FF"/>
<path d="M1.95949 261.961C1.75502 261.961 1.55054 261.914 1.34607 261.821C0.648992 261.486 0.360868 260.65 0.704758 259.962L21.6913 216.846C21.3382 213.983 19.2934 196.696 18.271 176.36C16.0032 131.134 51.4053 61.6772 51.7585 60.9801C52.1116 60.2923 52.9574 60.0228 53.6359 60.376C54.3237 60.7291 54.5932 61.5656 54.24 62.2534C53.8869 62.9412 18.8194 131.747 21.05 176.22C22.1561 198.285 24.4796 216.725 24.5075 216.902C24.5447 217.171 24.4982 217.441 24.3774 217.692L3.21422 261.18C2.97257 261.672 2.47997 261.961 1.95949 261.961Z" fill="#6A2EA0"/>
<path d="M68.1445 211.938C67.9586 211.938 67.7727 211.9 67.5868 211.817C66.8804 211.51 66.5644 210.683 66.8711 209.977C79.9854 179.993 56.1362 138.15 55.8945 137.732C55.5135 137.063 55.7365 136.217 56.4057 135.826C57.0749 135.436 57.9207 135.668 58.3111 136.338C58.3761 136.449 64.594 147.268 69.046 161.758C73.182 175.216 76.6023 194.697 69.4271 211.101C69.1947 211.622 68.6835 211.938 68.1445 211.938Z" fill="#6A2EA0"/>
<path d="M57.1023 138.429C56.9536 138.429 56.7956 138.401 56.6376 138.354C55.9126 138.103 55.5316 137.304 55.7825 136.579C73.5997 85.7857 52.2135 62.8101 51.9997 62.5871C51.47 62.0294 51.4793 61.1558 52.0369 60.6167C52.5853 60.0776 53.4682 60.0962 54.0073 60.6446C54.946 61.6112 76.8528 84.9585 58.4221 137.499C58.2176 138.076 57.6786 138.429 57.1023 138.429Z" fill="#6A2EA0"/>
<path d="M95.2192 247.211C95.0612 247.211 94.9125 247.183 94.7545 247.127C94.0295 246.867 93.6485 246.077 93.8994 245.352C98.9555 231.029 105.034 218.538 111.968 208.221C112.395 207.58 113.26 207.412 113.901 207.84C114.542 208.267 114.709 209.132 114.282 209.773C107.478 219.895 101.502 232.172 96.5204 246.272C96.3345 246.857 95.7955 247.211 95.2192 247.211Z" fill="#6A2EA0"/>
<path d="M137.48 210.396H79.7906C79.0192 210.396 78.3965 209.773 78.3965 209.002C78.3965 208.23 79.0192 207.608 79.7906 207.608H137.471C145.585 207.608 152.175 201.009 152.175 192.904V165.904C152.175 165.132 152.798 164.51 153.569 164.51C154.34 164.51 154.963 165.132 154.963 165.904V192.904C154.972 202.551 147.128 210.396 137.48 210.396Z" fill="#6A2EA0"/>
<path d="M153.577 97.1528C152.806 97.1528 152.183 96.5301 152.183 95.7587V32.3064C152.183 24.1924 145.584 17.6027 137.48 17.6027H79.7898C71.6758 17.6027 65.0861 24.2017 65.0861 32.3064V87.8585C65.0861 88.6299 64.4634 89.2527 63.692 89.2527C62.9206 89.2527 62.2979 88.6299 62.2979 87.8585V32.3064C62.2979 22.6589 70.1423 14.8145 79.7898 14.8145H137.47C147.118 14.8145 154.962 22.6589 154.962 32.3064V95.768C154.972 96.5301 154.349 97.1528 153.577 97.1528Z" fill="#6A2EA0"/>
<path d="M131.931 31.4621H99.6705C98.8991 31.4621 98.2764 30.8394 98.2764 30.068C98.2764 29.2965 98.8991 28.6738 99.6705 28.6738H131.931C132.703 28.6738 133.325 29.2965 133.325 30.068C133.325 30.8394 132.703 31.4621 131.931 31.4621Z" fill="#6A2EA0"/>
<path d="M89.1221 31.4621H84.066C83.2946 31.4621 82.6719 30.8394 82.6719 30.068C82.6719 29.2965 83.2946 28.6738 84.066 28.6738H89.1221C89.8936 28.6738 90.5163 29.2965 90.5163 30.068C90.5163 30.8394 89.8843 31.4621 89.1221 31.4621Z" fill="#6A2EA0"/>
<path d="M203.182 126.431C202.411 126.431 201.788 125.808 201.788 125.037V109.822C201.788 102.842 196.109 97.1535 189.12 97.1535C188.348 97.1535 187.726 96.5308 187.726 95.7594C187.726 94.988 188.348 94.3652 189.12 94.3652C197.643 94.3652 204.576 101.299 204.576 109.822V125.037C204.576 125.808 203.953 126.431 203.182 126.431Z" fill="#6A2EA0"/>
<path d="M189.129 165.569H111.949C103.426 165.569 96.4922 158.635 96.4922 150.113V109.822C96.4922 101.299 103.426 94.3652 111.949 94.3652H153.401C154.173 94.3652 154.795 94.988 154.795 95.7594C154.795 96.5308 154.173 97.1535 153.401 97.1535H111.949C104.969 97.1535 99.2805 102.832 99.2805 109.822V150.113C99.2805 157.093 104.959 162.781 111.949 162.781H189.129C196.109 162.781 201.797 157.102 201.797 150.113V143.876C201.797 143.105 202.42 142.482 203.191 142.482C203.962 142.482 204.585 143.105 204.585 143.876V150.113C204.576 158.635 197.652 165.569 189.129 165.569Z" fill="#6A2EA0"/>
<path d="M103.156 254.935H15.8453C15.0739 254.935 14.4512 254.312 14.4512 253.541C14.4512 252.769 15.0739 252.146 15.8453 252.146H103.156C103.928 252.146 104.55 252.769 104.55 253.541C104.55 254.312 103.918 254.935 103.156 254.935Z" fill="#6A2EA0"/>
<path d="M62.4192 277.073H15.8453C15.0739 277.073 14.4512 276.451 14.4512 275.679C14.4512 274.908 15.0739 274.285 15.8453 274.285H62.4192C63.1906 274.285 63.8133 274.908 63.8133 275.679C63.8133 276.451 63.1813 277.073 62.4192 277.073Z" fill="#6A2EA0"/>
<path d="M63.0978 288.338C55.8297 288.338 49.9092 282.427 49.9092 275.15C49.9092 267.872 55.8204 261.961 63.0978 261.961C70.3753 261.961 76.2865 267.872 76.2865 275.15C76.2865 282.427 70.3753 288.338 63.0978 288.338ZM63.0978 264.749C57.3632 264.749 52.6975 269.415 52.6975 275.15C52.6975 280.884 57.3632 285.55 63.0978 285.55C68.8324 285.55 73.4982 280.884 73.4982 275.15C73.4982 269.415 68.8324 264.749 63.0978 264.749Z" fill="#6A2EA0"/>
<path d="M164.759 76.4833C163.988 76.4833 163.365 75.8606 163.365 75.0891V27.3814C163.365 16.2282 154.284 7.14767 143.131 7.14767H64.6686C63.8971 7.14767 63.2744 6.52495 63.2744 5.75352C63.2744 4.98209 63.8971 4.35938 64.6686 4.35938H143.141C155.837 4.35938 166.163 14.6854 166.163 27.3814V75.0799C166.153 75.8513 165.531 76.4833 164.759 76.4833Z" fill="#6A2EA0"/>
<path d="M42.0087 95.8622C40.8098 95.8622 39.5829 95.6856 38.3282 95.3324C37.5847 95.128 37.1571 94.3565 37.3616 93.613C37.5661 92.8694 38.3375 92.4419 39.081 92.6464C41.953 93.455 44.5182 93.1204 46.9254 91.624C54.7605 86.7445 57.6697 71.4181 57.6976 71.2694C57.837 70.5166 58.5619 70.0147 59.3241 70.1541C60.0769 70.2935 60.5788 71.0185 60.4394 71.7806C60.3185 72.4591 57.2793 88.4639 48.3939 93.9941C46.3957 95.2395 44.258 95.8622 42.0087 95.8622Z" fill="#6A2EA0"/>
<defs>
<linearGradient id="paint0_linear" x1="6.6496" y1="162.527" x2="203.186" y2="162.527" gradientUnits="userSpaceOnUse">
<stop stop-color="#FF4C84"/>
<stop offset="1" stop-color="#4C90FF"/>
</linearGradient>
</defs>
</svg>

<svg width="205" height="289" fill="none" xmlns="http://www.w3.org/2000/svg"><path d="M97.896 125.036v25.076c0 7.761 6.292 14.062 14.062 14.062h77.18c7.761 0 14.062-6.292 14.062-14.062v-25.076H97.896Zm33.571 27.985H111.27v-5.465h20.197v5.465Zm20.196-12.826h-40.384v-5.465h40.384v5.465Zm31.768 12.826c-5.047 0-9.145-4.099-9.145-9.146 0-5.046 4.098-9.145 9.145-9.145s9.146 4.099 9.146 9.145a9.146 9.146 0 0 1-9.146 9.146Zm-85.535-42.856v-.344c0-7.761 6.292-14.062 14.062-14.062h77.18c7.761 0 14.062 6.292 14.062 14.062v.344H97.896ZM38.7 93.983s16.284 3.133 20.373-22.473c0 0 12.325 30.476-1.97 65.515 0 0 20.187 40.282 0 71.883h43.246S81.956 240.852 79.79 253.52H6.653l16.48-36.452s-8.329-46.62.566-76.892C32.594 109.905 38.7 93.983 38.7 93.983Z" fill="url(#a)"/><path d="M31.747 11.311a5.558 5.558 0 1 0 0-11.116 5.558 5.558 0 0 0 0 11.116Z" fill="#0061FF"/><path d="M1.96 261.961c-.205 0-.41-.047-.614-.14a1.379 1.379 0 0 1-.641-1.859l20.986-43.116c-.353-2.863-2.398-20.15-3.42-40.486-2.268-45.226 33.134-114.683 33.487-115.38a1.393 1.393 0 0 1 1.878-.604 1.39 1.39 0 0 1 .604 1.877c-.353.688-35.42 69.494-33.19 113.967 1.106 22.065 3.43 40.505 3.457 40.682.038.269-.009.539-.13.79L3.214 261.18a1.394 1.394 0 0 1-1.255.781ZM68.144 211.938c-.185 0-.371-.038-.557-.121a1.397 1.397 0 0 1-.716-1.84c13.114-29.984-10.735-71.827-10.976-72.245a1.399 1.399 0 0 1 .51-1.906 1.39 1.39 0 0 1 1.906.512c.065.111 6.283 10.93 10.735 25.42 4.136 13.458 7.556 32.939.381 49.343a1.408 1.408 0 0 1-1.283.837Z" fill="#6A2EA0"/><path d="M57.102 138.429c-.148 0-.306-.028-.464-.075a1.396 1.396 0 0 1-.855-1.775C73.6 85.786 52.212 62.81 52 62.587a1.394 1.394 0 0 1 .037-1.97 1.394 1.394 0 0 1 1.97.028c.939.966 22.846 24.313 4.415 76.854-.204.577-.743.93-1.32.93ZM95.22 247.211c-.159 0-.308-.028-.466-.084a1.4 1.4 0 0 1-.855-1.775c5.056-14.323 11.135-26.814 18.069-37.131a1.391 1.391 0 0 1 1.933-.381c.641.427.808 1.292.381 1.933-6.804 10.122-12.78 22.399-17.762 36.499a1.353 1.353 0 0 1-1.3.939Z" fill="#6A2EA0"/><path d="M137.48 210.396H79.79a1.392 1.392 0 0 1-1.394-1.394c0-.772.623-1.394 1.395-1.394h57.68c8.114 0 14.704-6.599 14.704-14.704v-27c0-.772.623-1.394 1.394-1.394.771 0 1.394.622 1.394 1.394v27c.009 9.647-7.835 17.492-17.483 17.492ZM153.577 97.153a1.392 1.392 0 0 1-1.394-1.394V32.306c0-8.114-6.599-14.703-14.703-14.703H79.79c-8.114 0-14.704 6.599-14.704 14.703V87.86c0 .77-.623 1.394-1.394 1.394a1.392 1.392 0 0 1-1.394-1.394V32.306c0-9.647 7.844-17.491 17.492-17.491h57.68c9.648 0 17.492 7.844 17.492 17.491v63.462a1.376 1.376 0 0 1-1.385 1.385Z" fill="#6A2EA0"/><path d="M131.931 31.462h-32.26a1.392 1.392 0 0 1-1.395-1.394c0-.771.623-1.394 1.395-1.394h32.26c.772 0 1.394.623 1.394 1.394 0 .771-.622 1.394-1.394 1.394ZM89.122 31.462h-5.056a1.392 1.392 0 0 1-1.394-1.394c0-.771.623-1.394 1.394-1.394h5.056c.772 0 1.394.623 1.394 1.394 0 .771-.632 1.394-1.394 1.394ZM203.182 126.431a1.393 1.393 0 0 1-1.394-1.394v-15.215c0-6.98-5.679-12.669-12.668-12.669a1.392 1.392 0 0 1-1.394-1.394c0-.771.622-1.394 1.394-1.394 8.523 0 15.456 6.934 15.456 15.457v15.215c0 .771-.623 1.394-1.394 1.394ZM189.129 165.569h-77.18c-8.523 0-15.457-6.934-15.457-15.456v-40.291c0-8.523 6.934-15.457 15.457-15.457h41.452c.772 0 1.394.623 1.394 1.394 0 .772-.622 1.394-1.394 1.394h-41.452c-6.98 0-12.668 5.679-12.668 12.669v40.291c0 6.98 5.678 12.668 12.668 12.668h77.18c6.98 0 12.668-5.679 12.668-12.668v-6.237c0-.771.623-1.394 1.394-1.394.771 0 1.394.623 1.394 1.394v6.237c-.009 8.522-6.933 15.456-15.456 15.456ZM103.156 254.935h-87.31a1.392 1.392 0 0 1-1.395-1.394c0-.772.623-1.395 1.394-1.395h87.311c.772 0 1.394.623 1.394 1.395 0 .771-.632 1.394-1.394 1.394ZM62.42 277.073H15.844a1.392 1.392 0 0 1-1.394-1.394c0-.771.623-1.394 1.394-1.394H62.42c.772 0 1.394.623 1.394 1.394 0 .772-.632 1.394-1.394 1.394Z" fill="#6A2EA0"/><path d="M63.098 288.338c-7.268 0-13.189-5.911-13.189-13.188 0-7.278 5.911-13.189 13.189-13.189 7.277 0 13.189 5.911 13.189 13.189 0 7.277-5.912 13.188-13.19 13.188Zm0-23.589c-5.735 0-10.4 4.666-10.4 10.401 0 5.734 4.665 10.4 10.4 10.4 5.734 0 10.4-4.666 10.4-10.4 0-5.735-4.666-10.401-10.4-10.401ZM164.759 76.483a1.392 1.392 0 0 1-1.394-1.394V27.381c0-11.153-9.081-20.233-20.234-20.233H64.669a1.392 1.392 0 0 1-1.395-1.394c0-.772.623-1.395 1.395-1.395h78.472c12.696 0 23.022 10.326 23.022 23.022V75.08a1.415 1.415 0 0 1-1.404 1.403ZM42.009 95.862c-1.2 0-2.426-.176-3.68-.53a1.394 1.394 0 1 1 .752-2.686c2.872.809 5.437.474 7.844-1.022 7.836-4.88 10.745-20.206 10.773-20.355a1.396 1.396 0 0 1 2.741.512c-.12.678-3.16 16.683-12.045 22.213-1.998 1.246-4.136 1.868-6.385 1.868Z" fill="#6A2EA0"/><defs><linearGradient id="a" x1="6.65" y1="162.527" x2="203.186" y2="162.527" gradientUnits="userSpaceOnUse"><stop stop-color="#FF4C84"/><stop offset="1" stop-color="#4C90FF"/></linearGradient></defs></svg>
